!!!!SEGMENT: pl-wnifc--13846--096_anonim--piesni-polskie-i-ruskie-ludu-galicyjskiego-96-po-pid-hajom-fesia-tetatka-pasala.krn
!!!cenid: 18xx:3318
!!!COM: Anonim
!!!COM-rismID: pe30004985
!!!CDT:
!!!CNT:
!!!GTL: Pieśni polskie i ruskie ludu galicyjskiego
!!!OTL: 96. Po pid hajom Fesia tetatka pasała
!!!PDT: 1833
!!!AGN:
!!!SMS-siglum: PL-Wnifc
!!!SMS-shelfmark: 13846
!!!SMS-shelfwork: 096 G
!!!SMS-variant:
!!!SMS-altvar:
!!!NIFC-rismSourceID: 1001036701
!!!NIFC-rismChildID: 1001039026
!!!NIFC-islandoraID: nifc:210326
!!!URL-pdf-islandora: https://repozytorium.nifc.pl/islandora/object/nifc%3A210326/datastream/PDF/view
!!!URL-scan:
!!!ONB-nifc:
!!!OMD: Andante sostenuto.
!!!AIN: 1 piano 1 vox
!!!key: d
**kern	**kern	**dynam	**kern	**text	**text
*part2	*part2	*part2	*part1	*part1	*part1
*group2	*group2	*	*group1	*group1	*group1
*staff3	*staff2	*	*staff1	*staff1	*staff1
*I"[FORTEPIAN.]	*I"[FORTEPIAN.]	*	*I"[GŁOS.]	*	*
*Ipiano	*Ipiano	*	*Ivox	*	*
*ICklav	*ICklav	*	*ICvox	*	*
*IGacmp	*IGacmp	*	*IGsolo	*	*
*clefF4	*clefG2	*	*clefG2	*	*
*k[b-]	*k[b-]	*	*k[b-]	*	*
*d:	*d:	*	*d:	*	*
*M2/4	*M2/4	*	*M2/4	*	*
*>[A,A,B,B]	*>[A,A,B,B]	*>[A,A,B,B]	*>[A,A,B,B]	*>[A,A,B,B]	*>[A,A,B,B]
=1-	=1-	=1-	=1-	=1-	=1-
*>A	*>A	*>A	*>A	*>A	*>A
!!LO:TX:t=P:problem:tekst: Pieśni polskie i ruskie ludu galicyjskiego, s. 277.
!	!	!LO:DY:b=2	!LO:TX:a:B:t=E.94.	!	!
8d\ 8A\ 8F\ 8D\	8.dd\^L	f	8.d/^>	Po	te-
8r	.	.	.	.	.
!	!	!	!LO:SIC:v:l:s=-lat-:verse 2	!	!
.	16ff`\Jk	.	16f/	pid	-tat-
8A/ 8E/ 8C#X/ 8AA/	8.ee\^L	.	8.e/^>	ha-	-ka
8r	.	.	.	.	.
.	16gg\Jk	.	16g/	-jom	pa-
=2	=2	=2	=2	=2	=2
8D/ 8AA/ 8FF/ 8DD/	8.ff\^<L	.	(8.f/L^>	Fe-	-su-
8r	.	.	.	.	.
.	16aa\K	.	16a/K	.	.
8B-\L 8BB-\	8.gg\	.	8.g/J)	.	.
8G\J 8GG\	.	.	.	.	.
.	16bb-\Jk	.	16b-/	-sia	-szczy
=3	=3	=3	=3	=3	=3
8A\ 8F\ 8D\ 8AA\	16aa\KL	.	16a`>/	te-	Fe-
!	!	!	!LO:SIC:v:l:s=-lat-:verse 1	!	!
.	8.aa\^<J	.	8.a/	-tat-	-sia
8r	.	.	.	.	.
8A\ 8G\ 8E\ 8AA\	(8a/L	.	(8a/L	-ka	za-
8r	16bn/L)	.	16bn/L)	.	.
.	16cc#X/JJ	.	16cc#X/JJ	pa-	-hu-
!!linebreak:original
=4	=4	=4	=4	=4	=4
[4A\ 4F\ 4D\	4dd\ 4a\ 4f\^	.	4dd\	-sa-	-ka-
8A\] 8F\ 8D\	8dd'\	.	8dd\	-ła,	-ła,
8r	8r	.	8r	.	.
=5:|!|:	=5:|!|:	=5:|!|:	=5:|!|:	=5:|!|:	=5:|!|:
*>B	*>B	*>B	*>B	*>B	*>B
*8va	*	*	*	*	*
16d`\LL	8.ff\L	.	8.ff\^	ho-	.
16A`\	.	.	.	.	.
16d`\	.	.	.	.	.
16e`\JJ	16ee\Jk	.	16ee\'	-łos	.
!	!	!	!LO:TX:t=P:problem:artykulacja?	!	!
16f`\LL	8dd`\L	.	8dd\	po	.
16d`\	.	.	.	.	.
!	!	!	!LO:TX:t=P:problem:artykulacja?	!	!
16g`\	8cc#X`\J	.	8cc#X\	du-	.
16e`\JJ	.	.	.	.	.
=6	=6	=6	=6	=6	=6
16f`\LL	(8.dd\^<L	.	(8.dd\L	-by-	.
16g`\	.	.	.	.	.
16f`\	.	.	.	.	.
16e`\JJ	16a\Jk)	.	16a\Jk)	.	.
16d`\LL	4a/^	.	4a/	-ni	.
16A`\	.	.	.	.	.
16c#X`\	.	.	.	.	.
16A`\JJ	.	.	.	.	.
!!linebreak:original
=7	=7	=7	=7	=7	=7
.	8qa/	>	.	.	.
16d`\LL	8.ff\L	.	8.ff\	aż	.
16A`\	.	.	.	.	.
16d`\	.	.	.	.	.
16e`\JJ	16ee\Jk	.	16ee\	sia	.
16f`\LL	8dd\L	.	8dd\	roz-	.
16d`\	.	.	.	.	.
16g`\	8cc#X\J	]	8cc#X\	-li-	.
16e`\JJ	.	.	.	.	.
=8	=8	=8	=8	=8	=8
16f`\LL	(8.dd\^<L	.	(8.dd\L	-ha-	.
16g`\	.	.	.	.	.
16f`\	.	.	.	.	.
16e`\JJ	16a\Jk)	.	16a\Jk)	.	.
16d`\LL	4a/^	.	4a/	-je,	.
16f`\	.	.	.	.	.
16e`\	.	.	.	.	.
16g`\JJ	.	.	.	.	.
*X8va	*	*	*	*	*
=9	=9	=9	=9	=9	=9
!	!LO:TX:b:i:t=8v Senza	!	!	!	!
.	8qa/	.	.	.	.
*^	*	*	*	*	*
!	!	!	!LO:HP:b=2	!LO:SIC:v:l:s=aż	!	!
[<4F#X/ [<4D/ 4FF#X/	[4FF#\	8.ccn\L	>	8.ccn\	az	.
.	.	16dd`\Jk	.	16dd\	tu	.
8F#/]L 8D/] 8FF#/	8FF#\L]	(16cc\LL	]	(16cc\LL	w_sej	.
.	.	16b-\	.	16b-\	.	.
8G/J 8D/ 8GG/	8GG\J	16a/)	.	16a/JJ)	.	.
.	.	16b-`\JJ	.	16b-\`	ho-	.
!!linebreak:original
=10	=10	=10	=10	=10	=10	=10
4C#X/ [<4AA/ 4CC#X/^	4ryy	8.a/L 8.e/ 8.A/	.	(8.a/L	-dy-	.
.	.	16g/Jk	.	16g/Jk	.	.
8D/L 8AA/]	8DD\L	(16f/LL	.	16f/LL	.	.
.	.	16e/	.	16e/	.	.
8D/J	8D\J 8BB-\^	16f/)	.	16f/JJ	.	.
.	.	16g`/JJ	.	16g/)	-ni	.
*v	*v	*	*	*	*	*
=11	=11	=11	=11	=11	=11
8F\ 8D\ 8AA\	8a/ 8f/ 8d/ 8A/	.	8a/	my-	.
8r	(16a/LL	.	(16a/LL	-łyj	.
.	16bn\JJ)	.	16bn\JJ)	.	.
8G\ 8E\ 8AA\	(16cc#X\LL	.	(16cc#X\LL	pry-	.
.	16a/	.	16a/	.	.
8r	16b\)	.	16b\JJ)	.	.
.	16cc#`\JJ	.	16cc#\	-bu-	.
=12	=12	=12	=12	=12	=12
4F\ 4D\	4dd\ 4a\ 4f\^	.	4dd\	-wa-	.
8F\ 8D\	8dd`\	.	8dd\	-je.	.
8r	8r	.	8r	.	.
==	==	==	==	==	==
*-	*-	*-	*-	*-	*-
!!!system-decoration: g1{(g2)}
!!!RDF**kern: > = above
!!!RDF**kern: < = below
!!!RDF**kern: | = vertical stroke
!!!ENC: Katarzyna Serwa
!!!END: 2021-11-11
!!!YEC: Copyright 2022 Narodowy Instytut Fryderyka Chopina (https://polishscores.org)
!!!YEM: License CC-BY-4.0 (https://creativecommons.org/licenses/by/4.0)
